X: 137
T: Cantantibus organis – Andante
C: Franciszek Walczyński
%%abc-version 2.0
%%abcx-abcm2ps-target-version 5.9.1 (29 Sep 2008)
%%abc-creator hum2abc beta
%%abcx-conversion-date 2021/10/04 07:38:42
%%abc-edited-by Kamil Watkowski
%%abcx-initial-encoding-date 2021-08-09
%%humdrum-veritas 4086907571
%%humdrum-veritas-data 122548190
%%linebreak <none>
%%barnumbers 0
L: 1/4
M: 3/4
N: Derived from pl-kozmzk--mzk-m-346--039_walczynski-franciszek--cantantibus-organis-andante.krn
%%staves {1 2}
V: 1 clef=treble
V: 2 clef=bass
K: Bb
[V:1] z3 & FDB, | 
[V:2] z3 & z3 | 
[V:1] E3 & C2B, | 
[V:2] G,3- & C,3 | 
[V:1] D3 & A,3 | 
[V:2] G,^F,/E,/F, & D,3 | 
[V:1] z3 & z3 | 
[V:2] A,^F,D, & z3 | 
[V:1] B3 & D3- | 
[V:2] G,3 & G,,>A,, B,,/C,/ | 
[V:1] A3 & D2E | 
[V:2] ^F,3 & D,2C, | 
[V:1] dBG & D2F | 
[V:2] G,3- & B,,2=B,, | 
[V:1] e>G A/B/ & E2-E/D/ | 
[V:2] G,!accent!C3/B,/ & C,2F,/G,/ | 
[V:1] d>cG/A/ & F3- | 
[V:2] B,/A,/G,/A,/B,/C/ & F,3 | 
[V:1] !fermata!B3 & F3 | 
[V:2] ED/C/!fermata!D & B,,3 | 
[V:1] fdB & z3 | 
[V:2] z3 & z3 | 
[V:1] e3 & c2B | 
[V:2] G3- & C3 | 
[V:1] d3 & A3 | 
[V:2] G^F/=E/F & D3 | 
[V:1] gec & B3- | 
[V:2] G3 & E2=E | 
[V:1] d2c/d/ & B2A | 
[V:2] F2E & F/F,/=E,/F,/^F, | 
[V:1] cB=B & G3- | 
[V:2] D3 & G,2=F, | 
[V:1] c>de & G3 | 
[V:2] C>=B,C & E,>D,C, | 
[V:1] dcB/G/ & F3- | 
[V:2] _B,A,/E/ D/B,/ & F,3 | 
[V:1] A>Bc & F2-F/E/ | 
[V:2] C>B,A, & F,,3 | 
[V:1] B3 & D3 | 
[V:2] B,C/B,/F,/G,/ & B,,3- | 
[V:1] B3- & FDB, | 
[V:2] _A,3 & B,,3- | 
[V:1] B3 & FE/D/E- | 
[V:2] G,3 & B,,3- | 
[V:1] B3- & EF/E/B,/C/ | 
[V:2] _G,3 & B,,3- | 
[V:1] B3- & DEC | 
[V:2] F,=G,E, & B,,3- | 
[V:1] B3- & D/E/D/C/D/E/ | 
[V:2] F,/G,/F,/E,/F,/G,/ & B,,3- | 
[V:1] B3 & DC/E/D | 
[V:2] F,_G,F, & B,,3 | 
[V:1] z3 & z3 | 
[V:2] z3 & F,D,B,, | 
[V:1] G2F & E3- | 
[V:2] A,3 & F,,3 | 
[V:1] F3- & EDC | 
[V:2] CB,A, & B,,3- | 
[V:1] !fermata!F3 & D3 |]  
[V:2] B,3 & !fermata![B,,3F,3] |]  


